X: 35875
T: Sands O' Murness
R: strathspey
M: 4/4
K: Amajor
L:1/16
E4|:A4 G3A F3A E3A|A3c da3 f3e cA3|B4 G3B E3B G3B|g3f e3^d f3e d3B|
A4 G3A F3A E3A|A3c da3 f3e cA3|f3e d3c Ba3 g3f|e3d BG3 A4 e4:|
|:a3c' ea3 c3e Ac3|E3A ce3 a3g f3e|^d3e c3e B3e g3f|((3e2f2e2) ((3d2c2B2) c4 ((3e2f2g2)|
a3c' ea3 c3e Ac3|E3A ce3 a3g f3e|^d3e c3e B3e g3f|((3e2f2e2) ((3d2c2B2) A4:|

